X: 12959
T: Fiddler's Whim, The
R: jig
M: 6/8
K: Dmajor
A|:F2A dcB|ABAf2e|dAF DFA|BEE E2A|
F2A dcB|ABA g2f|ecA ceg|1 fdd d2A:|2 fdd d2f/g/||
|:a2f b2g|agf g2e|c2e a2e|gfe f2g|
a2f b2g|agf g2e|cde gfe|1 d2f d2f/g/:|2 d2f d2||

